assets/icons/tag.svg

<svg width="20" height="20" viewBox="0 0 20 20" fill="none" xmlns="http://www.w3.org/2000/svg">
<path d="M2 10C2 6.2288 2 4.3432 3.1712 3.1712C4.344 2 6.2288 2 10 2C13.7712 2 15.6568 2 16.828 3.1712C18 4.344 18 6.2288 18 10C18 13.7712 18 15.6568 16.828 16.828C15.6576 18 13.7712 18 10 18C6.2288 18 4.3432 18 3.1712 16.828C2 15.6576 2 13.7712 2 10Z" stroke="currentColor" stroke-width="1.2"/>
<path d="M7.77779 6.44446V13.5556M12.2222 6.44446V13.5556M6.44446 7.77779H13.5556M6.44446 12.2222H13.5556" stroke="currentColor" stroke-width="1.3" stroke-linecap="round" stroke-linejoin="round"/>
</svg>

<svg xmlns="http://www.w3.org/2000/svg" width="20" height="20" fill="none" viewBox="0 0 20 20"><path stroke="currentColor" stroke-width="1.2" d="M2 10c0-3.771 0-5.657 1.171-6.829C4.344 2 6.23 2 10 2s5.657 0 6.828 1.171C18 4.344 18 6.23 18 10s0 5.657-1.172 6.828C15.658 18 13.771 18 10 18s-5.657 0-6.829-1.172C2 15.658 2 13.771 2 10Z"/><path stroke="currentColor" stroke-linecap="round" stroke-linejoin="round" stroke-width="1.3" d="M7.778 6.444v7.112m4.444-7.112v7.112M6.444 7.778h7.112m-7.112 4.444h7.112"/></svg>
